X:1
T:Corrientes, 98.98.98 D
T:Corrientes, 98.98.98 D
T:Samuel Melton Singleton, 1898
T:Public Domain Courtesy of the Cyber Hymnal™
C:Samuel Melton Singleton, 1898
Z:Public Domain
Z:Courtesy of the Cyber Hymnal™
%%score ( 1 2 ) ( 3 4 )
L:1/8
Q:1/4=105
M:4/4
K:Bb
V:1 treble 
V:2 treble 
V:3 bass 
V:4 bass 
V:1
 [DF]2 | [DB]2 [DB]>[DB] [Fd]2 [Fc]>[FB] | [Ec] [EB]3- [EB]2 [EF]>[EF] | %3
 [DB]2 [DB]>[DB] [FB]2 [EA]>[DB] | [Fc]6 [FB]2 | [EG]2 [EG]>[EG] [GB]2 [FA]>[EG] | %6
 [EG] [DF]3- [DF]2 [DF]>[DF] | [CF]2 [CF]>[DF] [EA]2 [EG]>[EA] | [DB]6 D>D | G2 G>A B2 c>c | %10
 d d3- d2 [^Fc]>[Fc] | [GB]2 [GB]>[GB] [Ac]2 [GB]>[GB] | [^FA]6 [FA]>[FA] | %13
 G2 [EG]>[EG] [GB]2 [FA]>[EG] | [EG] [DF]3- [DF]2 [DF]>[DF] | [CF]2 [CF]>[DF] [EA]2 [EG]>[EA] | %16
 [DB]6 [DB]2 | [Fc]2 [Fc]>[Fc] [Fc]2 [FB]>[Fc] | [Fd] [Fd]3- [Fd]2 [FB]>[FB] | %19
 [Ec]2 [Ec]2 [Ec]2 [GB]>[Gc] | [^Fd]6 [FB]2 | [EG]2 [EG]>[EG] [GB]2 [FA]>[EG] | %22
 [EG] [DF]3- [DF]2 [DF]>[DF] | [CF]2 [CF]>[DF] [EA]2 [EG]>[EA] | [DB]6 |] %25
V:2
 x2 | x8 | x8 | x8 | x8 | x8 | x8 | x8 | x6 D>D | G2 G>A B2 c>c | d d3- d2 x2 | x8 | x8 | G2 x6 | %14
 x8 | x8 | x8 | x8 | x8 | x8 | x8 | x8 | x8 | x8 | x6 |] %25
V:3
 [B,,B,]2 | [B,,F,]2 [B,,F,]>[B,,F,] [B,,B,]2 [C,A,]>[D,B,] | %2
 [E,G,] [E,G,]3- [E,G,]2 [F,A,]>[F,A,] | [B,,B,]2 [B,,F,]>[B,,F,] [D,F,]2 [C,F,]>[C,B,] | %4
 [F,A,]6 [D,B,]2 | [E,B,]2 [E,B,]>[E,B,] [E,B,]2 [E,B,]>[E,B,] | %6
 [B,,B,] [B,,B,]3- [B,,B,]2 [B,,B,]>[B,,B,] | [F,A,]2 [F,A,]>[F,B,] [F,C]2 [F,C]>[F,C] | %8
 [B,,B,]6 D,>D, | G,2 G,>A, B,2 C>C | D D3- D2 [D,A,]>[D,A,] | %11
 [G,B,]2 [G,D]>[G,D] [^F,D]2 [G,D]>[G,D] | [D,D]6 [D,C]>[D,C] | %13
 [E,B,]2 [E,B,]>[E,B,] [E,B,]2 [E,B,]>[E,B,] | [B,,B,] [B,,B,]3- [B,,B,]2 [B,,B,]>[B,,B,] | %15
 [F,A,]2 [F,A,]>[F,B,] [F,C]2 [F,C]>[F,C] | [B,,B,]6 [B,,B,]2 | %17
 [F,A,]2 [F,A,]>[F,A,] A,2 [D,B,]>[C,A,] | [B,,B,] [B,,B,]3- [B,,B,]2 [D,B,]>[D,B,] | %19
 [E,G,]2 [E,G,]2 [E,G,]2 [E,G,]>[E,G,] | [D,A,]6 [D,B,]2 | %21
 [E,B,]2 [E,B,]>[E,B,] [E,B,]2 [E,B,]>[E,B,] | [B,,B,] [B,,B,]3- [B,,B,]2 [B,,B,]>[B,,B,] | %23
 [F,A,]2 [F,A,]>[F,B,] [F,C]2 [F,C]>[F,C] | [B,,B,]6 |] %25
V:4
 x2 | x8 | x8 | x8 | x8 | x8 | x8 | x8 | x6 D,>D, | G,2 G,>A, B,2 C>C | D D3- D2 x2 | x8 | x8 | %13
 x8 | x8 | x8 | x8 | x4 (F,>E,) x2 | x8 | x8 | x8 | x8 | x8 | x8 | x6 |] %25

